X: 22013
T: Lango Lee
C: (Old Irish Melody)
R: jig
Z: 2011 John Chambers <jc:trillian.mit.edu>
B: RSCDS 22-1(II)
N: Arr. Margaret Rae
M: 6/8
L: 1/8
K: G
D |: "D"D>EF "Em"G>AB | "C"c>ed "D7"cBA | "C/G"BGE  "G"DGA | "D7"B>cA "G"G2 :|
c | "G"B2c "Em"d2d  | "C"e>dc "G"dBG | "G"Bcd "Em"efg | "A7"G>AG "D"FED |
    "C"cec "G"BdB | "Am"A>GA "Em"BGE | "C"GFE "G"Dd"C"c | "D7"B>eA "G"G2 |]
%%center Book22/22012-LangoLee-JC.abc

%%sep 1 1 500
%%sep 1 1 500
